lib/brands/icons/json.svg

<svg xmlns="http://www.w3.org/2000/svg" fill="none" aria-hidden="true" viewBox="0 0 48 48"><g id="json-Icon"><g id="Group"><path id="Vector" fill="url(#paint0_linear_3996_298898)" d="M23.9695 32.7974C31.934 43.6548 39.7284 29.767 39.717 21.4154C39.7034 11.541 29.6953 6.02229 23.963 6.02229C14.7622 6.02229 6 13.6264 6 24.0304C6 35.5945 16.0441 42 23.963 42C22.171 41.742 16.1991 40.4624 16.1189 26.7075C16.0649 17.4045 19.1536 13.6877 23.95 15.3227C24.0575 15.3625 29.2407 17.4072 29.2407 24.0865C29.2407 30.7375 23.9695 32.7974 23.9695 32.7974Z"/><path id="Vector_2" fill="url(#paint1_linear_3996_298898)" d="M23.9607 15.3152C18.6979 13.5013 12.251 17.8387 12.251 26.5267C12.251 40.7125 22.7631 42 24.0374 42C33.2382 42 42.0004 34.3959 42.0004 23.9919C42.0004 12.4278 31.9563 6.0223 24.0374 6.0223C26.2307 5.71855 35.8591 8.39603 35.8591 21.5556C35.8591 30.1373 28.6697 34.8092 23.9936 32.8131C23.8862 32.7733 18.703 30.7286 18.703 24.0492C18.703 17.3983 23.9607 15.3152 23.9607 15.3152Z"/></g></g><defs><linearGradient id="paint0_linear_3996_298898" x1="11.3244" x2="38.216" y1="11.3243" y2="34.9427" gradientUnits="userSpaceOnUse"><stop/><stop offset="1" stop-color="white"/></linearGradient><linearGradient id="paint1_linear_3996_298898" x1="36.6859" x2="7.5795" y1="36.6855" y2="16.8089" gradientUnits="userSpaceOnUse"><stop/><stop offset="1" stop-color="white"/></linearGradient></defs></svg>

<svg xmlns="http://www.w3.org/2000/svg" fill="none" aria-hidden="true" viewBox="0 0 48 48"><path fill="url(#a)" d="M23.97 32.797c7.964 10.858 15.758-3.03 15.747-11.382-.014-9.874-10.022-15.393-15.754-15.393C14.763 6.022 6 13.626 6 24.03 6 35.594 16.044 42 23.963 42c-1.792-.258-7.764-1.538-7.844-15.293-.054-9.303 3.035-13.02 7.831-11.384.108.04 5.29 2.084 5.29 8.764 0 6.65-5.27 8.71-5.27 8.71Z"/><path fill="url(#b)" d="M23.96 15.315c-5.263-1.814-11.71 2.524-11.71 11.212C12.25 40.712 22.764 42 24.038 42 33.237 42 42 34.396 42 23.992c0-11.564-10.044-17.97-17.963-17.97 2.193-.303 11.822 2.374 11.822 15.534 0 8.581-7.19 13.253-11.866 11.257-.107-.04-5.29-2.084-5.29-8.764 0-6.65 5.257-8.734 5.257-8.734Z"/><defs><linearGradient id="a" x1="11.324" x2="38.216" y1="11.324" y2="34.943" gradientUnits="userSpaceOnUse"><stop/><stop offset="1" stop-color="#fff"/></linearGradient><linearGradient id="b" x1="36.685" x2="7.579" y1="36.685" y2="16.809" gradientUnits="userSpaceOnUse"><stop/><stop offset="1" stop-color="#fff"/></linearGradient></defs></svg>
